img/why/1.svg

<svg width="30" height="30" viewBox="0 0 30 30" fill="none" xmlns="http://www.w3.org/2000/svg">
<path d="M27.0625 23.9211C28.9694 21.3541 30 18.2563 30 15C30 10.9934 28.4398 7.22654 25.6066 4.39336C22.7735 1.56029 19.0066 0 15 0V1.75781C18.5371 1.75781 21.8626 3.13523 24.3636 5.63637C26.8648 8.1375 28.2422 11.4629 28.2422 15C28.2422 17.8572 27.3429 20.576 25.6792 22.834L25.4777 20.5307L23.7265 20.6839L24.1862 25.9372L29.4396 25.4776L29.2864 23.7265L27.0625 23.9211Z" fill="white"/>
<path d="M1.75781 15.0002C1.75781 12.143 2.65705 9.42426 4.32082 7.16623L4.52232 9.46949L6.27346 9.31633L5.81385 4.06299L0.560449 4.52254L0.713613 6.27367L2.93742 6.07914C1.03061 8.64607 0 11.7439 0 15.0002C0 19.0069 1.56023 22.7737 4.39336 25.6069C7.22654 28.4399 10.9934 30.0002 15 30.0002V28.2424C11.4629 28.2424 8.13744 26.865 5.63637 24.3638C3.13523 21.8627 1.75781 18.5373 1.75781 15.0002Z" fill="white"/>
<path d="M15 17.6953C16.4886 17.6953 17.6953 16.4886 17.6953 15C17.6953 13.5114 16.4886 12.3047 15 12.3047C13.5114 12.3047 12.3047 13.5114 12.3047 15C12.3047 16.4886 13.5114 17.6953 15 17.6953Z" fill="white"/>
<path d="M23.1432 11.4301L21.4186 11.9904C21.0334 11.1724 20.4965 10.4395 19.8442 9.82811L20.9118 8.35869L19.4896 7.32545L18.4234 8.79311C17.6514 8.36566 16.792 8.07797 15.8791 7.96459V6.15234H14.1213V7.96459C13.2084 8.07797 12.3489 8.36572 11.577 8.79311L10.5107 7.32545L9.08861 8.35869L10.1562 9.82811C9.50387 10.4395 8.96691 11.1724 8.58184 11.9904L6.85719 11.4301L6.31396 13.1018L8.03756 13.6618C7.95441 14.0954 7.91035 14.5426 7.91035 15C7.91035 15.4574 7.95441 15.9046 8.03756 16.3382L6.31396 16.8982L6.85719 18.5699L8.58184 18.0096C8.96697 18.8276 9.50387 19.5605 10.1562 20.1719L9.08861 21.6413L10.5107 22.6746L11.577 21.2069C12.3489 21.6343 13.2084 21.922 14.1213 22.0354V23.8477H15.8791V22.0354C16.792 21.922 17.6514 21.6343 18.4234 21.2069L19.4896 22.6746L20.9118 21.6413L19.8442 20.1719C20.4965 19.5605 21.0335 18.8276 21.4186 18.0096L23.1432 18.5699L23.6864 16.8982L21.9628 16.3382C22.046 15.9046 22.09 15.4574 22.09 15C22.09 14.5426 22.046 14.0954 21.9628 13.6618L23.6864 13.1018L23.1432 11.4301ZM19.4533 15C19.4533 17.4554 17.4557 19.4531 15.0002 19.4531C12.5447 19.4531 10.5471 17.4554 10.5471 15C10.5471 12.5446 12.5447 10.5469 15.0002 10.5469C17.4557 10.5469 19.4533 12.5446 19.4533 15Z" fill="white"/>
</svg>

<svg width="30" height="30" viewBox="0 0 30 30" fill="none" xmlns="http://www.w3.org/2000/svg"><path d="M27.063 23.921A14.888 14.888 0 0030 15c0-4.007-1.56-7.773-4.393-10.607A14.902 14.902 0 0015 0v1.758c3.537 0 6.863 1.377 9.364 3.878A13.155 13.155 0 0128.242 15c0 2.857-.9 5.576-2.563 7.834l-.201-2.303-1.752.153.46 5.253 5.254-.46-.154-1.75-2.224.194zM1.758 15c0-2.857.899-5.576 2.563-7.834l.201 2.303 1.751-.153-.46-5.253-5.253.46.154 1.75 2.223-.194A14.888 14.888 0 000 15c0 4.007 1.56 7.774 4.393 10.607A14.902 14.902 0 0015 30v-1.758a13.155 13.155 0 01-9.364-3.878A13.155 13.155 0 011.758 15zM15 17.695a2.695 2.695 0 100-5.39 2.695 2.695 0 000 5.39z" fill="#fff"/><path d="M23.143 11.43l-1.724.56a7.128 7.128 0 00-1.575-2.162l1.068-1.47-1.422-1.033-1.067 1.468a7.037 7.037 0 00-2.544-.828V6.152h-1.758v1.813a7.037 7.037 0 00-2.544.828l-1.066-1.468L9.089 8.36l1.067 1.47a7.125 7.125 0 00-1.574 2.161l-1.725-.56-.543 1.672 1.724.56a7.1 7.1 0 000 2.676l-1.724.56.543 1.672 1.725-.56c.385.818.922 1.55 1.574 2.162l-1.067 1.47 1.422 1.033 1.066-1.468a7.037 7.037 0 002.544.828v1.813h1.758v-1.813a7.038 7.038 0 002.544-.828l1.067 1.468 1.422-1.034-1.068-1.47a7.127 7.127 0 001.575-2.161l1.724.56.543-1.672-1.723-.56a7.095 7.095 0 000-2.676l1.723-.56-.543-1.672zM19.453 15A4.458 4.458 0 0115 19.453 4.458 4.458 0 0110.547 15 4.458 4.458 0 0115 10.547 4.458 4.458 0 0119.453 15z" fill="#fff"/></svg>
